X: 43078
T: Wind That Shakes The Piggery, The
R: jig
M: 6/8
K: Fmajor
c2|Acf(a3|a2)e gfd|c2f (G3|G2)A BGF|
EGB(e3|e)dc BAG|FAG FGF|E2c BAG|
Acf(a3|a2)e gfd|c2f (G3|G2)A BGF|
EGB(e3|e)dc BAG|FAG FAc|f3 fGF|
EGB (e3|e)GA BAG|FAc (f3|f)AB cBA|
G=Bd (g3|g)fe dc=B|c=Bc e2d|c2B A2 G|
Acf(a3|a2)e gfd|c2f (G3|G2)A BGF|
EGB(e3|e)dc BAG|FAG FAc|f3 f||

